X:1
T:Triduanas a Domino - Bai
T:James Gibb editions
T:#
%%score [ 1 2 3 4 ]
L:1/8
Q:1/4=200
M:none
K:C
V:1 treble nm="Soprano" snm="S"
V:2 treble nm="Alto" snm="A"
V:3 treble-8 nm="Tenor" snm="T"
V:4 bass nm="Bass" snm="B"
V:1
"^Triduanas a Domino""^Tommaso Bai\n(1636-1714)" A12 A4 | F8 E4 A4 | (F4 D2 E2 F2 G2 A4- | %3
w: Tri- du-|a- nas a|Do\- * * * * *|
 A4) G4 A4 F4 | (C2 D2 E2 F2 G4 F4 | E4 F4 E6) E2 | D4 d8 ^c4 | d8 A8 | z4 D4 F6 F2 | E8 z8 | %10
w: * mi- no, a|Do\- * * * * *|* * * mi-|no, tri- du-|a- nas|a Do- mi-|no,|
 z8 z4 A4- | A4 A4 F8 | E8 z8 | z4 A8 A4 | F8 E8 | z8 z4 D4 | (E2 F2 G2 E2 F2 G2 A2 B2 | c4 c4 B8 | %18
w: tri\-|* du- a-|nas,|tri- du-|a- nas|a|Do\- * * * * * * *|* mi- no,|
 z4 A4 (A2 G2 F2 ED | E4) A4 A8 | z4 A4 c8 | B4 G4 A4) B4 | c4 A4 (B2 c2) d4- | d4 ^c4 d6 d2 | %24
w: a Do\- * * * *|* mi- no,|a Do\-|* * * mi-|no po- po\- * sci|* in- du- ci-|
 A8 z8 | z16 | z16 | z4 d4 c4 A4 | z8 z4 A4 | (A2 G2 F2 G2 A6) A2 | A8 z8 | z4 A4 A4 ^G4 | A8 E8 | %33
w: as,|||po- po- sci|a|Do\- * * * * mi-|no,|ut do- mum|me- am,|
 z4 c4 c4 B4 | (c6 d2 e8) | E4 c4 c4 B4 | c4 A4 z4 c4 | (c4 B4 c6) c2 | G8 z4 c4- | c4 B4 (c8- | %40
w: ut do- mum|me\- * *|am, ut do- mum|me- am Ec-|cle\- * * si-|am con\-|* se- cra\-|
 c4 d4 c2 B2 G2 A2 | B8) G8 | z4 e4 e4 ^d4 | e4 B4 z4 B4 | (G2 A2 B2 c2 B6) B2 | B4 B4 z8 | %46
w: |* rem,|ut do- mum|me- am, ut|do\- * * * * mum|me- am,|
 (B6 A2) (^G4 A4- | A4) ^G4 A8 | ^G4 A4 (A4 G4) | A8 z8 | (A6 G2 F4) E4 | (F8 E4 F2 G2 | %52
w: Ec\- * cle\- *|* si- am|con- se- cra\- *|rem,|con\- * * se-|cra\- * * *|
 A8) A4 d4 | d4 ^c4 d4 A4 | z4 e4 f6 e2 | d4 A8 A4 | A4 A4 A8 | z8 d6 c2 | (_B4 A4 G4 ^F4 | %59
w: * rem, ut|do- mum me- am,|ut do- mum|me- am Ec-|cle- si- am|con- se-|cra\- * * *|
 G4 A4 _B4 c4 | d2 c2 _B8[Q:1/4=198] A4 | %61
w: ||
[Q:1/4=195] _B2[Q:1/4=193] c2[Q:1/4=190] d6[Q:1/4=186] c2[Q:1/4=185] B2[Q:1/4=183] A2 | %62
w: |
[Q:1/4=181] _B2[Q:1/4=180] A2[Q:1/4=176] G8[Q:1/4=172] ^F2[Q:1/4=170] E2) | %63
w: |
[Q:1/4=170] !fermata!^F16 |] %64
w: rem.|
V:2
 z16 | z16 | D12 D4 | _B,8 A,4 D4 | (A,2 B,2 C2 D2 E4 D4 | ^C4 D8) C4 | D4 D4 E6 E2 | A,8 D4 F4 | %8
w: ||Tri- du-|a- nas a|Do\- * * * * *|* * mi-|no, a Do- mi-|no, tri- du-|
 D8 ^C4 D4 | (=C2 D2 E2 F2 G6) G2 | F4 D4 (E4 F4 | E6) E2 D4 D4 | (C2 D2 E2 F2 G8- | G4 F4 E6) E2 | %14
w: a- nas a|Do\- * * * * mi-|no, a Do\- *|* mi- no, a|Do\- * * * *|* * * mi-|
 D8 z4 E4 | (F4 E2 D2 ^C4 D4- | D4) ^C4 D4 F4 | (E2 D2 E2 F2 G4 E4) | C4 F4 (E4 F2 G2 | %19
w: no, a|Do\- * * * *|* mi- no po-|po\- * * * * *|sci in- du\- * *|
 A4) E4 F4 D4 | (F8 E4 C4 | D4) E4 F4 D4 | (E4 F4) G6 F2 | E4 E4 D8 | z16 | z8 z4 D4 | E8 D4 E4 | %27
w: * ci- as, a|Do\- * *|* mi- no po-|po\- * sci in-|du- ci- as,||po-|po- sci in-|
 F6 F2 E4 E4 | A8 F4 F4 | (E4 F4 E6) E2 | D4 E4 (F4 E4- | E4) D4 E8- | E8 z8 | z4 A4 A4 ^G4 | %34
w: du- ci- as, po-|po- sci a|Do\- * * mi-|no, a Do\- *|* mi- no,||ut do- mum|
 A12 E4 | z4 A4 A4 ^G4 | A8 A4 =G4 | F8 E8 | z8 z4 E4- | E4 D4 (E6 F2 | G8) G8 | z16 | %42
w: me- am|Ec- cle- si-|am con- se-|cra- rem,|con\-|* se- cra\- *|* rem,||
 z4 G4 G4 ^F4 | G8 ^F8 | z4 G4 ^F4 G4 | ^F8 G4 G4 | ^F4 F4 E8- | E8 E8- | E4 E4 E8 | E8 A6 G2 | %50
w: ut do- mum|me- am,|ut do- mum|me- am Ec-|cle- si- am|* con\-|* se- cra-|rem, con- se-|
 (F4 E4 D4 ^C4 | D8 ^C4 D4 | E8) D4 F4 | F4 E4 F8 | E4 E4 (A6 G2 | F8) E4 F4 | E4 E4 D8 | D16- | %58
w: cra\- * * *||* rem, ut|do- mum me-|am Ec- cle\- *|* si- am|con- se- cra-|rem.|
 D16 | D16 | D16 | D16 | D16 | !fermata!D16 |] %64
w: ||||||
V:3
 z16 | z16 | z16 | z16 | z16 | A12 A4 | F8 E4 A4 | (F4 D2 E2 F2 G2 A4- | A4) G4 A8- | %9
w: |||||Tri- du-|a- nas a|Do\- * * * * *|* mi- no,|
 A4 A4 (G2 A2 B2 c2 | d8 ^c4 d4- | d4) ^c4 d4 A4 | (A2 B2 =c2 d2 e4 d4 | ^c4 d8) c4 | d4 d4 =c8 | %15
w: * a Do\- * * *||* mi- no, a|Do\- * * * * *|* * mi-|no, tri- du-|
 B8 A4 A4 | G6 G2 A8 | z4 A4 (G2 A2 B2 G2) | A4 d4 (^c4 d4- | d4) ^c4 d8 | z16 | z16 | z16 | %23
w: a- nas a|Do- mi- no,|po- po\- * * *|sci in- du\- *|* ci- as,||||
 z4 A4 F4 D4 | z4 A4 c8 | B4 G4 (A2 G2 A2 B2 | c6) c2 B4 c4 | d4 A4 A8 | z4 ^c4 (d8 | ^c4 d8) c4 | %30
w: po- po- sci,|po- po-|sci in- du\- * * *|* ci- as a|Do- mi- no,|a Do\-|* * mi-|
 d4 =c4 (c4 B4 | A6) A2 B8 | z4 c4 c4 B4 | (c6 d2 e8) | A4 c4 c4 B4 | (c6 d2) e4 e4 | %36
w: no, a Do\- *|* mi- no,|ut do- mum|me\- * *|am, ut do- mum|me\- * am Ec-|
 e4 c2 e2 d4 G4 | (A2 G2 F4) G4 e4 | e4 d4 (e6 f2 | g4) G4 z4 e4 | e4 d4 e8 | d4 d4 e4 e2 d2 | %42
w: cle- si- am con- se-|cra\- * * rem, ut|do- mum me\- *|* am, ut|do- mum me-|am Ec- cle- si- am|
 c4 B4 B8 | B4 e4 e4 ^d4 | e8 ^d4 e4 | ^d4 d2 d2 e4 e4- | e4 ^d4 e8 | (e6 d2 c4) c4 | (B4 c4 B8 | %49
w: con- se- cra-|rem, ut do- mum|me- am Ec-|cle- si- am, Ec- cle\-|* si- am|con\- * * se-|cra\- * *|
 c6 B2 A4 ^c4 | d4 A4) A8 | z8 z4 d4- | d4 ^c4 d8 | A8 z4 d4 | d4 ^c4 (d8 | A6 B2 ^c4 d4- | %56
w: |* * rem,|con\-|* se- cra-|rem, ut|do- mum me\-||
 d4 ^c4) d4 d4 | (d6 =c2 _B4 A4 | G4 ^F4 G4 (A4 | _B4) ^F4 G4 A4 | _B2 A2 G2 ^F2 G4 F4 | %61
w: * * am Ec-|cle\- * * *|* si- am con\-|* se- cra\- *||
 G4 A4 _B4 d4- | d2 c2 _B8 A2 G2) | A16 |] %64
w: ||rem.|
V:4
 z16 | z16 | z16 | z16 | z16 | z16 | z16 | D,12 D,4 | _B,,8 A,,4 D,4 | %9
w: |||||||Tri- du-|a- nas a|
 (A,,2 B,,2 C,2 D,2 E,6) E,2 | D,4 _B,,4 A,,8- | A,,4 A,,4 D,4 D,4 | (A,8 G,8 | A,12) A,,4 | %14
w: Do\- * * * * mi-|no, a Do\-|* mi- no, a|Do\- *|* mi-|
 D,4 D,4 (A,,2 B,,2 C,2 A,,2 | D,4 E,4 F,8 | E,6) E,2 D,4 D,4 | %17
w: no, a Do\- * * *||* mi- no po-|
 (A,,2 B,,2 C,2 D,2 E,2 F,2 G,2 E,2) | F,6 G,2 A,8- | A,4 A,,4 D,8- | D,8 z8 | z16 | z16 | %23
w: po\- * * * * * * *|sci in- du\-|* ci- as,||||
 z8 z4 D,4 | F,8 E,4 C,4 | (D,4 E,4 F,4 D,4 | C,2 D,2 E,2 F,2 G,4 E,4 | D,4) D,4 A,4 A,4 | %28
w: po-|po- sci a|Do\- * * *||* mi- no, a|
 (F,4 A,4 D,2 E,2 F,2 G,2 | A,8 A,,6) A,,2 | D,4 A,4 (A,4 G,4 | F,8 E,6) E,2 | A,,4 A,4 A,4 ^G,4 | %33
w: Do\- * * * * *|* * mi-|no, a Do\- *|* * mi-|no, ut do- mum|
 A,8 E,8 | z4 A,4 A,4 ^G,4 | A,8 E,4 E,4 | A,4 A,2 G,2 F,4 E,4 | D,8 C,4 C4 | C4 B,4 C8 | %39
w: me- am,|ut do- mum|me- am Ec-|cle- si- am con- se-|cra- rem, ut|do- mum me-|
 G,8 z4 C4 | C4 B,4 C8 | G,4 G,4 C4 C2 B,2 | A,4 E,4 (B,8 | E,8 B,,8 | E,2 ^F,2 G,2 A,2 B,4 E,4 | %45
w: am, ut|do- mum me-|am Ec- cle- si- am|con- se- cra\-|||
 B,6 A,2 G,4 E,4 | B,4 B,,4) E,6 D,2 | C,4 E,4 (A,,2 B,,2 C,2 D,2 | E,4 A,,4 E,8 | %49
w: |* * rem, ut|do- mum me\- * * *||
 A,6 G,2 F,4 E,4 | D,4 ^C,4) D,4 A,,4 | (D,2 E,2 F,2 G,2 A,4 D,4 | A,,4) A,,4 D,8 | z8 z4 D,4 | %54
w: |* * am Ec-|cle\- * * * * *|* si- am,|ut|
 A,6 G,2 (F,4 D,4- | D,2 E,2 F,2 G,2 A,4 D,4) | A,4 A,,4 (D,6 C,2 | _B,,4 A,,4 G,,4) ^F,,4 | %58
w: do- mum me\- *||am Ec- cle\- *|* * * si-|
 G,,4 (A,,4 _B,,4) A,,4 | (G,,4 D,4 G,,4 ^F,,4 | G,,6 A,,2 _B,,2 C,2 D,4 | G,,4 ^F,,4 G,,4 D,4 | %62
w: am con\- * se-|cra\- * * *|||
 G,,8 D,8) | D,16 |] %64
w: |rem.|

